X:122
T:A Soldiers Life
M:6/4
L:1/4
K:D
d|f>ga f>ed|e2c A2d|f>ga f>ef|e3-e2  e|f>ga f>ed|e2c A>GF|GAB A>Bc|d3-d2||
%
%
